img/content/browserdark.svg

<svg width="360" height="40" fill="none" xmlns="http://www.w3.org/2000/svg"><path fill-rule="evenodd" clip-rule="evenodd" d="M4 0h352c2.2 0 4 1.8 4 4v36H0V4c0-2.2 1.8-4 4-4zm12.9288 23.5c1.2504 2.1658 3.5613 3.5 6.0622 3.5 3.866 0 7-3.134 7-7s-3.134-7-7-7c-2.5009 0-4.8118 1.3342-6.0622 3.5s-1.2504 4.8342 0 7zM46.002 27c-2.5009 0-4.8118-1.3342-6.0622-3.5-1.2505-2.1658-1.2505-4.8342 0-7 1.2504-2.1658 3.5613-3.5 6.0622-3.5 3.8659 0 7 3.134 7 7s-3.1341 7-7 7zm16.9488-3.5c1.2504 2.1658 3.5613 3.5 6.0621 3.5 3.866 0 7-3.134 7-7s-3.134-7-7-7c-2.5008 0-4.8117 1.3342-6.0621 3.5-1.2505 2.1658-1.2505 4.8342 0 7z" fill="#4D4D4D"/></svg>

<svg width="360" height="40" viewBox="0 0 360 40" fill="none" xmlns="http://www.w3.org/2000/svg">
<path fill-rule="evenodd" clip-rule="evenodd" d="M4 0H356C358.2 0 360 1.8 360 4V40H0V4C0 1.8 1.8 0 4 0ZM16.9288 23.5C18.1792 25.6658 20.4901 27 22.991 27C26.857 27 29.991 23.866 29.991 20C29.991 16.134 26.857 13 22.991 13C20.4901 13 18.1792 14.3342 16.9288 16.5C15.6784 18.6658 15.6784 21.3342 16.9288 23.5ZM46.002 27C43.5011 27 41.1902 25.6658 39.9398 23.5C38.6893 21.3342 38.6893 18.6658 39.9398 16.5C41.1902 14.3342 43.5011 13 46.002 13C49.8679 13 53.002 16.134 53.002 20C53.002 23.866 49.8679 27 46.002 27ZM62.9508 23.5C64.2012 25.6658 66.5121 27 69.0129 27C72.8789 27 76.0129 23.866 76.0129 20C76.0129 16.134 72.8789 13 69.0129 13C66.5121 13 64.2012 14.3342 62.9508 16.5C61.7003 18.6658 61.7003 21.3342 62.9508 23.5Z" fill="#4D4D4D"/>
</svg>
